X:8964
T:La Louise
C:MCTB 1/47
M:3/8
L:1/8
K:C
Gcd|fed|cde|c2B|\
Gcd|fed|cde|d3:|
|:def|g>ag|fd/e/d/e/|fed|\
cd/e/d/e/|fed|1 cd/e/d/c/|BAG:|2 cd/e/d/B/|c3||


